img/svg/advantages-image-1.svg

<svg width="71" height="71" viewBox="0 0 71 71" fill="none" xmlns="http://www.w3.org/2000/svg">
<path d="M66.6584 4.06281L66.6465 4.05089C65.7939 3.19201 64.7077 2.60273 63.5229 2.35636C62.338 2.10999 61.1069 2.2174 59.9827 2.66523L40.8779 10.3224C39.9897 10.6816 39.1933 11.2353 38.547 11.9426C38.5036 11.9903 38.4626 12.0395 38.4207 12.088H34.6019V10.9918C34.6019 10.701 34.4864 10.4222 34.2808 10.2166C34.0752 10.011 33.7964 9.89554 33.5057 9.89554H30.2169V8.79929C30.2169 8.50855 30.1014 8.22971 29.8958 8.02412C29.6903 7.81854 29.4114 7.70304 29.1207 7.70304H23.6394C23.4407 7.70312 23.2457 7.7571 23.0753 7.85926L17.594 11.148C17.4317 11.2454 17.2974 11.3832 17.2042 11.5479C17.1109 11.7127 17.0619 11.8987 17.062 12.088V14.2805C17.062 14.5713 17.1774 14.8501 17.383 15.0557C17.5886 15.2613 17.8675 15.3768 18.1582 15.3768H28.0244V19.7618H18.1582C17.8675 19.7618 17.5886 19.8773 17.383 20.0828C17.1774 20.2884 17.062 20.5673 17.062 20.858V23.0505C17.0619 23.2398 17.1109 23.4259 17.2042 23.5906C17.2974 23.7553 17.4317 23.8931 17.594 23.9905L23.0753 27.2793C23.2457 27.3814 23.4407 27.4354 23.6394 27.4355H29.1207C29.4114 27.4355 29.6903 27.32 29.8958 27.1144C30.1014 26.9088 30.2169 26.63 30.2169 26.3393V25.243H33.5057C33.7964 25.243 34.0752 25.1275 34.2808 24.9219C34.4864 24.7163 34.6019 24.4375 34.6019 24.1468V23.0505H38.9869C39.6743 23.0494 40.3555 22.9197 40.9952 22.6681C42.4194 23.1938 43.988 23.1721 45.3971 22.6072L64.5021 14.9499C65.1971 14.6685 65.8372 14.267 66.3931 13.7636V28.5318H57.6231V20.858H55.4306V37.0599L49.0787 44.3999C49.0603 44.421 49.0428 44.443 49.0262 44.4654C48.0932 45.7275 47.65 47.2853 47.7792 48.8495C47.7655 49.0162 47.7569 55.6051 47.7569 55.6051L45.7484 58.6176C45.6282 58.798 45.5642 59.0099 45.5644 59.2267V61.4192H37.8907V60.3229H40.0832C41.2457 60.3216 42.3603 59.8592 43.1824 59.0372C44.0044 58.2151 44.4668 57.1005 44.4681 55.938V35.1092C44.4668 33.9467 44.0044 32.8321 43.1824 32.01C42.3603 31.188 41.2457 30.7256 40.0832 30.7242H7.19572C6.03315 30.7256 4.91857 31.188 4.09651 32.01C3.27444 32.8321 2.81204 33.9467 2.81073 35.1092V55.938C2.81204 57.1005 3.27444 58.2151 4.09651 59.0372C4.91857 59.8592 6.03315 60.3216 7.19572 60.3229H18.8972L17.3312 65.8042H14.8695V67.9967H32.4094V65.8042H29.9472L28.3807 60.3229H31.3132V62.5154C31.3148 63.9687 31.8928 65.3619 32.9204 66.3895C33.948 67.417 35.3412 67.995 36.7944 67.9967H62.0081C62.2989 67.9967 62.5777 67.8812 62.7833 67.6756C62.9889 67.47 63.1044 67.1912 63.1044 66.9004V59.2267C63.1043 59.0102 63.0402 58.7987 62.9202 58.6185L60.9119 55.6061V50.6984L66.2873 44.486C66.9715 43.8998 67.5277 43.1792 67.9213 42.3688C68.315 41.5585 68.5378 40.6758 68.5757 39.7757C68.5785 39.7194 68.5856 8.79929 68.5856 8.79929H68.577C68.5853 7.92229 68.42 7.0523 68.0908 6.23942C67.7615 5.42654 67.2747 4.68681 66.6584 4.06281ZM28.0244 24.1468V25.243H23.9427L19.2544 22.4299V21.9543H28.0244V24.1468ZM28.0244 10.9918V13.1843H19.2544V12.7086L23.9427 9.89554H28.0244V10.9918ZM32.4094 23.0505H30.2169V12.088H32.4094V23.0505ZM34.6019 20.858V14.2805H37.1681C36.7866 15.3896 36.6993 16.5787 36.9149 17.7315C37.1304 18.8844 37.6413 19.9617 38.3977 20.858H34.6019ZM5.00323 35.1092C5.00388 34.528 5.23508 33.9707 5.64611 33.5596C6.05715 33.1486 6.61444 32.9174 7.19572 32.9167H40.0832C40.6644 32.9174 41.2217 33.1486 41.6327 33.5597C42.0437 33.9707 42.275 34.528 42.2757 35.1092V52.6492H37.8907V49.3605C37.8907 49.0697 37.7752 48.7909 37.5696 48.5853C37.364 48.3797 37.0852 48.2642 36.7944 48.2642H34.0965C33.9039 47.6502 33.657 47.0545 33.3589 46.4842L35.2665 44.5766C35.3683 44.4748 35.4491 44.3539 35.5042 44.2209C35.5593 44.0879 35.5877 43.9453 35.5877 43.8013C35.5877 43.6573 35.5593 43.5148 35.5042 43.3817C35.4491 43.2487 35.3683 43.1279 35.2665 43.0261L32.1659 39.9253C32.0641 39.8235 31.9433 39.7428 31.8103 39.6877C31.6773 39.6326 31.5347 39.6042 31.3907 39.6042C31.2468 39.6042 31.1042 39.6326 30.9712 39.6877C30.8382 39.7428 30.7173 39.8235 30.6155 39.9253L28.7078 41.8331C28.1376 41.5351 27.542 41.2883 26.9282 41.0957V38.398C26.9282 38.1072 26.8127 37.8284 26.6071 37.6228C26.4015 37.4172 26.1227 37.3017 25.8319 37.3017H21.4469C21.1562 37.3017 20.8774 37.4172 20.6718 37.6228C20.4662 37.8284 20.3507 38.1072 20.3507 38.398V41.0957C19.7366 41.2883 19.1409 41.5351 18.5705 41.8332L16.6628 39.9253C16.4572 39.7198 16.1784 39.6043 15.8877 39.6043C15.5969 39.6043 15.3181 39.7198 15.1125 39.9253L12.0117 43.0261C11.9099 43.1279 11.8291 43.2487 11.774 43.3817C11.7189 43.5148 11.6905 43.6573 11.6905 43.8013C11.6905 43.9453 11.7189 44.0879 11.774 44.2209C11.8291 44.3539 11.9099 44.4748 12.0117 44.5766L13.9193 46.4842C13.6212 47.0545 13.3744 47.6502 13.1818 48.2642H10.4845C10.1937 48.2642 9.91489 48.3797 9.7093 48.5853C9.50371 48.7909 9.38822 49.0697 9.38822 49.3605V52.6492H5.00323V35.1092ZM23.6394 46.0717C22.8267 46.0717 22.024 46.2525 21.2897 46.601C20.5554 46.9494 19.9078 47.4568 19.3938 48.0864C18.8797 48.7159 18.5121 49.452 18.3176 50.2411C18.1231 51.0303 18.1065 51.8528 18.2691 52.6492H11.5807V50.4567H14.0199C14.2684 50.4567 14.5095 50.3722 14.7037 50.2171C14.8979 50.062 15.0337 49.8455 15.0887 49.6031C15.307 48.6403 15.6877 47.7216 16.2144 46.8865C16.3469 46.6762 16.404 46.4271 16.3764 46.18C16.3487 45.933 16.2378 45.7027 16.062 45.5269L14.3364 43.8014L15.8868 42.2509L17.6124 43.9768C17.7882 44.1526 18.0185 44.2634 18.2656 44.291C18.5126 44.3187 18.7617 44.2616 18.972 44.129C19.8071 43.6024 20.7258 43.2217 21.6887 43.0033C21.931 42.9483 22.1475 42.8126 22.3026 42.6184C22.4577 42.4241 22.5422 42.183 22.5422 41.9345V39.4942H24.7347V41.9343C24.7348 42.1829 24.8192 42.424 24.9743 42.6182C25.1294 42.8124 25.3458 42.9481 25.5882 43.0032C26.5511 43.2216 27.4698 43.6022 28.3049 44.1289C28.5152 44.2614 28.7643 44.3185 29.0114 44.2908C29.2584 44.2631 29.4887 44.1523 29.6644 43.9765L31.39 42.2507L32.9404 43.8013L31.2148 45.5267C31.039 45.7025 30.9282 45.9328 30.9005 46.1799C30.8728 46.4269 30.9299 46.676 31.0624 46.8864C31.5891 47.7215 31.9698 48.6401 32.1881 49.603C32.2431 49.8454 32.3789 50.0618 32.5731 50.2169C32.7673 50.372 33.0084 50.4565 33.257 50.4566H35.6982V52.6491H29.0097C29.1724 51.8527 29.156 51.0301 28.9615 50.2409C28.7671 49.4517 28.3995 48.7156 27.8854 48.086C27.3714 47.4563 26.7237 46.949 25.9893 46.6006C25.2549 46.2522 24.4523 46.0716 23.6394 46.0717ZM26.9282 51.553C26.9277 51.9265 26.8636 52.2972 26.7387 52.6492H20.5398C20.3796 52.1976 20.3201 51.7164 20.3654 51.2393C20.4107 50.7622 20.5597 50.3008 20.802 49.8874C21.0442 49.4739 21.3739 49.1184 21.768 48.8457C22.162 48.5731 22.6109 48.3898 23.0832 48.3087C23.5555 48.2277 24.0398 48.2508 24.5022 48.3765C24.9647 48.5023 25.394 48.7275 25.7603 49.0365C26.1265 49.3456 26.4208 49.7309 26.6226 50.1656C26.8243 50.6002 26.9286 51.0738 26.9282 51.553ZM19.6107 65.8042L21.1767 60.3229H26.1004L27.6665 65.8042H19.6107ZM7.19572 58.1304C6.61444 58.1298 6.05715 57.8986 5.64611 57.4876C5.23508 57.0765 5.00388 56.5192 5.00323 55.938V54.8417H42.2757V55.938C42.275 56.5192 42.0437 57.0765 41.6327 57.4875C41.2217 57.8985 40.6644 58.1298 40.0832 58.1304H7.19572ZM45.5644 65.8042H36.7944C35.9225 65.8032 35.0865 65.4564 34.47 64.8398C33.8535 64.2233 33.5066 63.3874 33.5057 62.5154V60.3229H35.6982V61.4192C35.6988 62.0005 35.93 62.5578 36.3411 62.9688C36.7521 63.3798 37.3094 63.611 37.8907 63.6117H45.5644V65.8042ZM60.9119 65.8042H47.7569V59.5586L49.7652 56.5461C49.8853 56.366 49.9493 56.1544 49.9494 55.938V53.1797C50.8378 53.9694 51.9243 54.5025 53.0925 54.7219L53.107 54.7247C53.5099 54.8014 53.9192 54.84 54.3293 54.8399C55.9476 54.8384 57.5093 54.2444 58.7194 53.1699V55.938C58.7193 56.1544 58.7834 56.366 58.9034 56.5461L59.9595 58.1304H51.0456V60.3229H60.9119V65.8042ZM66.3931 39.405C66.3931 39.4681 66.3923 39.5312 66.3899 39.5945C66.3899 39.6052 66.389 39.6158 66.3887 39.6265C66.3521 40.4661 66.0697 41.2766 65.5764 41.9571L57.9049 50.823C57.8865 50.8441 57.869 50.866 57.8524 50.8885C57.3596 51.547 56.6917 52.0539 55.9248 52.3513C55.158 52.6487 54.323 52.7247 53.5151 52.5707L53.5007 52.5679C52.9377 52.4628 52.401 52.2476 51.9213 51.9346C51.4416 51.6217 51.0284 51.2172 50.7052 50.7443C50.3826 50.2776 50.1563 49.7511 50.0397 49.1958C49.9231 48.6405 49.9185 48.0675 50.0263 47.5104C50.1454 46.8936 50.398 46.3103 50.7662 45.8014L58.4375 36.9355C58.4559 36.9143 58.4734 36.8924 58.4901 36.8699C58.9831 36.2115 59.6511 35.7047 60.4181 35.4073C61.185 35.1099 62.0201 35.0339 62.8281 35.1879L62.8436 35.1908C63.4061 35.2962 63.9424 35.5115 64.4216 35.8243C64.9009 36.1372 65.3138 36.5414 65.6367 37.014C66.1209 37.7151 66.3843 38.5451 66.3931 39.3972V39.405ZM66.3931 34.5785C65.5054 33.7894 64.4198 33.2565 63.2525 33.0371H63.2492L63.2355 33.0345C62.2436 32.8477 61.222 32.8905 60.2492 33.1596C59.2763 33.4287 58.378 33.917 57.6231 34.587V30.7242H66.3931V34.5785ZM44.5812 20.572C43.8554 20.8599 43.061 20.928 42.2968 20.7679C41.5327 20.6077 40.8325 20.2264 40.2834 19.6713L40.2716 19.6594C38.5983 17.9858 38.5505 15.1878 40.1648 13.4222C40.5883 12.9576 41.1105 12.5939 41.693 12.3577L43.9588 11.4495L47.4942 19.4044L44.5812 20.572ZM66.3931 8.79929V8.90891C66.3661 9.99904 65.9478 11.0431 65.2146 11.8503C64.7911 12.3147 64.2689 12.6785 63.6865 12.9149L49.5312 18.588L45.9958 10.633L60.7985 4.6996C61.2634 4.5131 61.7597 4.41733 62.2607 4.41745C62.7879 4.41856 63.3097 4.52361 63.7963 4.72657C64.2829 4.92954 64.7246 5.22644 65.0964 5.6003L65.1083 5.61222C65.5225 6.03215 65.8493 6.53004 66.0699 7.07709C66.2904 7.62415 66.4003 8.2095 66.3931 8.79929Z" fill="#2D486B"/>
<path d="M9.38805 35.1093H7.19556V37.3017H9.38805V35.1093Z" fill="#2D486B"/>
<path d="M9.38805 39.4943H7.19556V46.0718H9.38805V39.4943Z" fill="#2D486B"/>
</svg>

<svg width="71" height="71" viewBox="0 0 71 71" fill="none" xmlns="http://www.w3.org/2000/svg"><path d="M66.658 4.063l-.011-.012a6.172 6.172 0 00-6.664-1.386l-19.105 7.657a6.416 6.416 0 00-2.331 1.62c-.043.048-.084.098-.126.146H34.6v-1.096a1.096 1.096 0 00-1.095-1.096h-3.29V8.799a1.096 1.096 0 00-1.095-1.096h-5.482c-.198 0-.393.054-.564.156l-5.481 3.289a1.096 1.096 0 00-.532.94v2.193a1.096 1.096 0 001.096 1.096h9.866v4.385h-9.866a1.097 1.097 0 00-1.096 1.096v2.192a1.095 1.095 0 00.532.94l5.481 3.29c.17.101.366.155.564.155h5.482a1.096 1.096 0 001.096-1.096v-1.096h3.289a1.096 1.096 0 001.096-1.096V23.05h4.385a5.511 5.511 0 002.008-.383 6.127 6.127 0 004.402-.06l19.105-7.658a6.39 6.39 0 001.891-1.186v14.768h-8.77v-7.674H55.43V37.06l-6.352 7.34a1.06 1.06 0 00-.053.065 6.478 6.478 0 00-1.247 4.384c-.014.167-.022 6.756-.022 6.756l-2.009 3.013c-.12.18-.184.392-.184.609v2.192H37.89v-1.096h2.192a4.39 4.39 0 004.385-4.385V35.109a4.39 4.39 0 00-4.385-4.385H7.196A4.39 4.39 0 002.81 35.11v20.829a4.39 4.39 0 004.385 4.385h11.701l-1.566 5.481h-2.46v2.193h17.54v-2.193h-2.463l-1.566-5.481h2.932v2.192a5.487 5.487 0 005.481 5.482h25.214a1.096 1.096 0 001.096-1.097v-7.673c0-.217-.064-.428-.184-.608l-2.008-3.013v-4.908l5.375-6.212a6.565 6.565 0 002.289-4.71c.003-.057.01-30.977.01-30.977h-.009a6.652 6.652 0 00-1.919-4.736zM28.024 24.147v1.096h-4.081l-4.689-2.813v-.476h8.77v2.193zm0-13.155v2.192h-8.77v-.475l4.689-2.813h4.081v1.096zM32.41 23.05h-2.192V12.088h2.192v10.963zm2.193-2.192V14.28h2.566a6.779 6.779 0 001.23 6.578h-3.796zm-29.6 14.251a2.195 2.195 0 012.193-2.192h32.887a2.195 2.195 0 012.193 2.192v17.54H37.89v-3.288a1.096 1.096 0 00-1.097-1.097h-2.697c-.193-.614-.44-1.21-.738-1.78l1.907-1.907a1.097 1.097 0 000-1.55l-3.1-3.102a1.096 1.096 0 00-1.55 0l-1.908 1.908a10.866 10.866 0 00-1.78-.737v-2.698a1.096 1.096 0 00-1.096-1.096h-4.385a1.096 1.096 0 00-1.096 1.096v2.698c-.614.192-1.21.44-1.78.737l-1.908-1.908a1.096 1.096 0 00-1.55 0l-3.101 3.101a1.096 1.096 0 000 1.55l1.907 1.908c-.298.57-.545 1.166-.737 1.78h-2.697a1.096 1.096 0 00-1.097 1.096v3.29H5.003V35.11zM23.64 46.072a5.48 5.48 0 00-5.37 6.577h-6.688v-2.192h2.439a1.096 1.096 0 001.069-.854 8.698 8.698 0 011.125-2.717 1.097 1.097 0 00-.152-1.36l-1.726-1.725 1.55-1.55 1.726 1.726a1.096 1.096 0 001.36.152 8.702 8.702 0 012.717-1.126 1.096 1.096 0 00.853-1.069v-2.44h2.193v2.44a1.096 1.096 0 00.853 1.07 8.7 8.7 0 012.717 1.125 1.096 1.096 0 001.36-.152l1.725-1.726 1.55 1.55-1.725 1.726a1.096 1.096 0 00-.153 1.36 8.697 8.697 0 011.126 2.716 1.096 1.096 0 001.069.854h2.441v2.192H29.01a5.48 5.48 0 00-5.37-6.577zm3.29 5.481a3.303 3.303 0 01-.19 1.096h-6.2a3.288 3.288 0 116.39-1.096zm-7.32 14.251l1.566-5.481H26.1l1.566 5.481h-8.055zM7.196 58.13a2.195 2.195 0 01-2.193-2.192v-1.096h37.273v1.096a2.195 2.195 0 01-2.193 2.192H7.196zm38.368 7.674h-8.77a3.292 3.292 0 01-3.288-3.289v-2.192h2.192v1.096a2.194 2.194 0 002.193 2.193h7.673v2.192zm15.348 0H47.757V59.56l2.008-3.013c.12-.18.184-.392.184-.608V53.18a6.551 6.551 0 003.144 1.542l.014.003a6.621 6.621 0 005.612-1.555v2.768c0 .216.064.428.184.608l1.056 1.584h-8.913v2.193h9.866v5.481zm5.481-26.399c0 .063 0 .126-.003.19l-.001.032a4.29 4.29 0 01-.813 2.33l-7.671 8.866a1.03 1.03 0 00-.053.066 4.39 4.39 0 01-4.337 1.682l-.014-.003a4.352 4.352 0 01-2.796-1.824 4.265 4.265 0 01-.679-3.234c.12-.616.372-1.2.74-1.709l7.672-8.866c.018-.02.035-.043.052-.065a4.392 4.392 0 014.338-1.682l.016.003a4.354 4.354 0 012.793 1.823c.484.701.747 1.531.756 2.383v.008zm0-4.827a6.548 6.548 0 00-3.14-1.54h-.004l-.014-.003a6.612 6.612 0 00-5.612 1.552v-3.863h8.77v3.854zM44.581 20.572a3.981 3.981 0 01-4.298-.9l-.011-.013c-1.674-1.673-1.721-4.471-.107-6.237a4.207 4.207 0 011.528-1.064l2.266-.909 3.535 7.955-2.913 1.168zM66.393 8.799v.11a4.542 4.542 0 01-1.178 2.941 4.212 4.212 0 01-1.529 1.065l-14.155 5.673-3.535-7.955L60.798 4.7a3.925 3.925 0 011.463-.283A4.01 4.01 0 0165.096 5.6l.012.012A4.463 4.463 0 0166.393 8.8z" fill="#2D486B"/><path d="M9.388 35.11H7.196v2.192h2.192v-2.193zm0 4.384H7.196v6.578h2.192v-6.578z" fill="#2D486B"/></svg>
